src/assets/icons/code-example.svg

<svg width="32" height="32" viewBox="0 0 32 32" fill="none" xmlns="http://www.w3.org/2000/svg">
<rect width="32" height="32" rx="4" fill="#F29D41"/>
<path fill-rule="evenodd" clip-rule="evenodd" d="M17.1428 18.6586V21.5709L23.999 17.6927V14.8782L17.1428 11V13.9057L21.3022 16.2854L17.1428 18.6586ZM14.8562 18.6586L10.6968 16.2855L14.8562 13.9057V11L8 14.8769V17.6927L14.8562 21.5709V18.6586Z" fill="white"/>
<path d="M17.1428 21.5709H16.9428V21.9138L17.2412 21.7449L17.1428 21.5709ZM17.1428 18.6586L17.0437 18.4849L16.9428 18.5424V18.6586H17.1428ZM23.999 17.6927L24.0975 17.8668L24.199 17.8093V17.6927H23.999ZM23.999 14.8782H24.199V14.7615L24.0975 14.7041L23.999 14.8782ZM17.1428 11L17.2412 10.8259L16.9428 10.6571V11H17.1428ZM17.1428 13.9057H16.9428V14.0217L17.0435 14.0793L17.1428 13.9057ZM21.3022 16.2854L21.4013 16.4591L21.7054 16.2857L21.4016 16.1118L21.3022 16.2854ZM10.6968 16.2855L10.5975 16.1119L10.2936 16.2857L10.5977 16.4592L10.6968 16.2855ZM14.8562 18.6586H15.0562V18.5425L14.9554 18.4849L14.8562 18.6586ZM14.8562 13.9057L14.9556 14.0793L15.0562 14.0217V13.9057H14.8562ZM14.8562 11H15.0562V10.6572L14.7578 10.8259L14.8562 11ZM8 14.8769L7.90156 14.7028L7.8 14.7602V14.8769H8ZM8 17.6927H7.8V17.8094L7.90153 17.8668L8 17.6927ZM14.8562 21.5709L14.7578 21.745L15.0562 21.9138V21.5709H14.8562ZM17.3428 21.5709V18.6586H16.9428V21.5709H17.3428ZM23.9006 17.5186L17.0443 21.3968L17.2412 21.7449L24.0975 17.8668L23.9006 17.5186ZM23.799 14.8782V17.6927H24.199V14.8782H23.799ZM17.0443 11.1741L23.9006 15.0523L24.0975 14.7041L17.2412 10.8259L17.0443 11.1741ZM17.3428 13.9057V11H16.9428V13.9057H17.3428ZM21.4016 16.1118L17.2421 13.7321L17.0435 14.0793L21.2029 16.459L21.4016 16.1118ZM17.2419 18.8323L21.4013 16.4591L21.2031 16.1117L17.0437 18.4849L17.2419 18.8323ZM10.5977 16.4592L14.7571 18.8323L14.9554 18.4849L10.7959 16.1117L10.5977 16.4592ZM14.7569 13.7321L10.5975 16.1119L10.7961 16.4591L14.9556 14.0793L14.7569 13.7321ZM14.6562 11V13.9057H15.0562V11H14.6562ZM8.09844 15.051L14.9547 11.1741L14.7578 10.8259L7.90156 14.7028L8.09844 15.051ZM8.2 17.6927V14.8769H7.8V17.6927H8.2ZM14.9547 21.3968L8.09847 17.5186L7.90153 17.8668L14.7578 21.745L14.9547 21.3968ZM14.6562 18.6586V21.5709H15.0562V18.6586H14.6562Z" fill="#F29D41"/>
</svg>

<svg width="32" height="32" fill="none" xmlns="http://www.w3.org/2000/svg"><rect width="32" height="32" rx="4" fill="#F29D41"/><path fill-rule="evenodd" clip-rule="evenodd" d="M17.143 18.659v2.912l6.856-3.878v-2.815L17.143 11v2.906l4.16 2.38-4.16 2.373zm-2.287 0l-4.16-2.373 4.16-2.38V11L8 14.877v2.816l6.856 3.878v-2.912z" fill="#fff"/><path d="M17.143 21.57h-.2v.344l.298-.17-.098-.173zm0-2.911l-.1-.174-.1.057v.117h.2zm6.856-.966l.099.174.101-.058v-.116h-.2zm0-2.815h.2v-.117l-.102-.057-.098.174zM17.143 11l.098-.174-.298-.169V11h.2zm0 2.906h-.2v.116l.1.057.1-.173zm4.16 2.38l.098.173.304-.173-.303-.174-.1.173zm-10.606 0l-.1-.174-.303.174.304.173.099-.174zm4.16 2.373h.2v-.116l-.102-.058-.099.174zm0-4.753l.099.173.1-.057v-.116h-.2zm0-2.906h.2v-.343l-.3.169.1.174zM8 14.877l-.098-.174-.102.057v.117H8zm0 2.816h-.2v.116l.102.058.098-.174zm6.856 3.878l-.098.174.298.169v-.343h-.2zm2.487 0v-2.912h-.4v2.912h.4zm6.558-4.052l-6.857 3.878.197.348 6.857-3.878-.197-.348zm-.102-2.64v2.814h.4v-2.815h-.4zm-6.755-3.705l6.857 3.878.197-.348-6.857-3.878-.197.348zm.299 2.732V11h-.4v2.906h.4zm4.059 2.206l-4.16-2.38-.198.347 4.159 2.38.199-.347zm-4.16 2.72l4.16-2.373-.199-.347-4.16 2.373.199.347zm-6.644-2.373l4.16 2.373.197-.347-4.16-2.373-.197.347zm4.159-2.727l-4.16 2.38.2.347 4.159-2.38-.2-.347zm-.1-2.732v2.906h.4V11h-.4zm-6.559 4.051l6.857-3.877-.197-.348-6.856 3.877.196.348zm.102 2.642v-2.816h-.4v2.816h.4zm6.755 3.704l-6.857-3.878-.196.348 6.856 3.878.197-.348zm-.299-2.738v2.912h.4v-2.912h-.4z" fill="#F29D41"/></svg>
